nova/resources/svg/fluent/warning.svg

<svg width="24" height="24" viewBox="0 0 24 24" fill="none" xmlns="http://www.w3.org/2000/svg">
<path d="M10.9092 2.78216C11.949 2.20625 13.247 2.54089 13.8848 3.5224L13.9676 3.66023L21.7266 17.6685C21.9114 18.0021 22.0084 18.3773 22.0084 18.7587C22.0084 19.9495 21.0832 20.9243 19.9124 21.0035L19.7584 21.0087H4.2426C3.86129 21.0087 3.48623 20.9118 3.15265 20.7271C2.11281 20.1513 1.70777 18.8734 2.20133 17.812L2.27422 17.6687L10.031 3.66046C10.2355 3.2911 10.5399 2.98674 10.9092 2.78216ZM20.4144 18.3953L12.6555 4.38702C12.4548 4.02467 11.9983 3.89363 11.636 4.09433C11.5437 4.14547 11.4635 4.21533 11.4005 4.299L11.3433 4.3871L3.58647 18.3954C3.38582 18.7577 3.51692 19.2141 3.87928 19.4148C3.96268 19.461 4.05385 19.4907 4.14785 19.5027L4.2426 19.5087H19.7584C20.1726 19.5087 20.5084 19.1729 20.5084 18.7587C20.5084 18.6633 20.4902 18.5691 20.4551 18.4811L20.4144 18.3953L12.6555 4.38702L20.4144 18.3953ZM12.0003 16.0018C12.5518 16.0018 12.9989 16.4489 12.9989 17.0004C12.9989 17.552 12.5518 17.9991 12.0003 17.9991C11.4487 17.9991 11.0016 17.552 11.0016 17.0004C11.0016 16.4489 11.4487 16.0018 12.0003 16.0018ZM11.9961 8.49955C12.3758 8.49925 12.6898 8.78115 12.7397 9.14718L12.7467 9.24895L12.7503 13.7505C12.7506 14.1648 12.4151 14.5008 12.0009 14.5011C11.6212 14.5014 11.3072 14.2195 11.2572 13.8535L11.2503 13.7517L11.2467 9.25015C11.2463 8.83594 11.5819 8.49988 11.9961 8.49955Z" fill="currentColor"/>
</svg>

<svg viewBox="0 0 24 24" fill="none" xmlns="http://www.w3.org/2000/svg"><path d="M10.91 2.782a2.25 2.25 0 012.975.74l.083.138 7.759 14.009a2.25 2.25 0 01-1.815 3.334l-.154.006H4.243A2.25 2.25 0 012.2 17.812l.073-.143L10.031 3.66a2.25 2.25 0 01.878-.878zm9.504 15.613L12.655 4.387a.75.75 0 00-1.255-.088l-.057.088-7.757 14.008a.75.75 0 00.562 1.108l.095.006h15.515a.75.75 0 00.697-1.028l-.04-.086-7.76-14.008 7.76 14.008zM12 16.002a.999.999 0 110 1.997.999.999 0 010-1.997zM11.996 8.5a.75.75 0 01.744.647l.007.102.003 4.502a.75.75 0 01-1.493.103l-.007-.102-.003-4.502a.75.75 0 01.75-.75z" fill="currentColor"/></svg>
